X:1
T:Title
%%score { ( 1 3 ) | ( 2 4 ) }
L:1/8
Q:1/4=108
M:4/4
K:Ab
V:1 treble nm="Grand Piano"
V:3 treble 
V:2 bass 
V:4 bass 
V:1
 A2 A2 F2 E2 | A2 A2 F2 E2 | [EA]2 AB c2 BA | B2 [Ge]2 [Ge]4 | e2 fe c2 .[Ec]2 | %5
w: Geo.~B.~Holsinger * * *|||||
 [A,FA]2 [A,FA]2 [A,DF]2 [A,CE]2 | [A,EA][A,EA][A,EA][FB] [Ec]2 [DB]2 | [CA]6 z2 | %8
w: |||
 e2 fe c2 [Ec][EB] | [FA]2 [FA]2 [DF]2 [CE]2 | [EA]2 AB c2 BA | B2 [Ge]2 [Ge]4 | e2 fe c2 .[Ec]2 | %13
w: |||||
 [A,FA]2 [A,FA]2 [A,DF]2 [A,CE]2 | z2 .[EA]2 z4 | [CA]6 z2 |] %16
w: |||
V:2
 [A,CE]2 [A,CE]2 [A,D]2 [A,C]2 | [A,CE]2 [A,CE]2 [A,D]2 [A,C]2 | z4 z2 .[G,E]2 | %3
 [E,G,E]2 [E,B,]2 [E,B,]4 | [A,CA]2 [A,A]-[A,CA][K:bass] [A,E]2 z[K:treble] B | D,2 D,2 A,,2 A,,2 | %6
 C,C,C,[D,A,] [E,A,]2 [E,G,]2 | [A,,A,]6 z2 | [A,CA]2 [A,DA][A,CA][K:bass] [A,E]2 [C,A,][C,A,] | %9
 [D,A,]2 [D,A,]2 [A,,A,]2 [A,,A,]2 | [C,A,]2 [C,A,][E,G,] [A,E]2 [G,B,E][F,B,=D] | %11
 [E,G,E]2 [E,B,]2 [E,B,]4 | [A,CA]2 [A,A]-[A,CA][K:bass] [A,E]2 z[K:treble] B | D,2 D,2 A,,2 A,,2 | %14
 C,2 C,D, [E,A,E]2 [E,D]2 | [A,,E,]6 z2 |] %16
V:3
 x8 | x8 | z2 E2 z4 | x8 | x8 | x8 | x8 | x8 | x8 | x8 | z2 E2 z4 | x8 | x8 | x8 | %14
 [A,EA]2 A,-[A,FB] c2 B2 | x8 |] %16
V:4
 x8 | x8 | [C,A,]2 [C,A,][E,G,] [A,E]2 B,-[F,B,=D] | x8 | z2 .D2[K:bass] z2 [C,A,]2[K:treble] | %5
 x8 | x8 | x8 | x4[K:bass] x4 | x8 | x8 | x8 | z2 .D2[K:bass] z2 [C,A,]2[K:treble] | x8 | x8 | %15
 x8 |] %16

